X:934
T:Reel 934
M:4/4
K:Cmaj
L:1/8
GF|:E>C (3CCC CDCA,|G,A,CE DCAG|E>C (3CCC CA,A,2|G,A, (3DCD ECCD|EDCE DCC2|G,A,CE DEFD|EGFE D2CA,|G,A,CE DCC2|EGGE  (3ABA GE|CAGE D2CA,|G,A, (3EB,A, G,A,CD|EFDE C2C2|EGAB cGAG|EGGE DCA,C|CA,G,A, G,A,CD|EFDE C2|
